X:1798
T:Bouree a six de Briantes
Z:abc transcription Simon Wascher
N:please mail errors to: simon.wascher@chello.at
M:2/4
L:1/8
K:G
d3e|c2 A2|d3/2c/2 BA|G3/2A/2 Bc|
d3e|c2 A2|d3/2c/2 BA|G4:|
|:A3/2B/2 cA|dB G2|A3/2B/2 cA|GE FD|
A3/2B/2 cA|dB G2|A3/2B/2 AF|G4:|


